Numix/22/status/pushbullet-indicator-sync0-light.svg

<?xml version="1.0" encoding="UTF-8" standalone="no"?>
<!-- Created with Inkscape (http://www.inkscape.org/) -->

<svg
   xmlns:dc="http://purl.org/dc/elements/1.1/"
   xmlns:cc="http://creativecommons.org/ns#"
   xmlns:rdf="http://www.w3.org/1999/02/22-rdf-syntax-ns#"
   xmlns:svg="http://www.w3.org/2000/svg"
   xmlns="http://www.w3.org/2000/svg"
   xmlns:sodipodi="http://sodipodi.sourceforge.net/DTD/sodipodi-0.dtd"
   xmlns:inkscape="http://www.inkscape.org/namespaces/inkscape"
   id="svg3039"
   version="1.1"
   inkscape:version="0.91 r"
   width="22"
   height="22"
   sodipodi:docname="pushbullet-indicator-sync2-light.svg">
  <metadata
     id="metadata3045">
    <rdf:RDF>
      <cc:Work
         rdf:about="">
        <dc:format>image/svg+xml</dc:format>
        <dc:type
           rdf:resource="http://purl.org/dc/dcmitype/StillImage" />
        <dc:title />
      </cc:Work>
    </rdf:RDF>
  </metadata>
  <defs
     id="defs3043">
    <clipPath
       id="clipPath-408241621">
      <g
         id="g3616"
         transform="translate(0,-1004.3622)">
        <path
           id="path3618"
           transform="matrix(15.333333,0,0,11.5,414.99999,878.8622)"
           d="m -24,13 c 0,1.105 -0.672,2 -1.5,2 -0.828,0 -1.5,-0.895 -1.5,-2 0,-1.105 0.672,-2 1.5,-2 0.828,0 1.5,0.895 1.5,2 z"
           inkscape:connector-curvature="0"
           style="fill:#1890d0" />
      </g>
    </clipPath>
  </defs>
  <sodipodi:namedview
     pagecolor="#ffffff"
     bordercolor="#666666"
     borderopacity="1"
     objecttolerance="10"
     gridtolerance="10"
     guidetolerance="10"
     inkscape:pageopacity="0"
     inkscape:pageshadow="2"
     inkscape:window-width="1366"
     inkscape:window-height="747"
     id="namedview3041"
     showgrid="true"
     inkscape:zoom="8"
     inkscape:cx="4.4435702"
     inkscape:cy="6.641438"
     inkscape:window-x="0"
     inkscape:window-y="21"
     inkscape:window-maximized="1"
     inkscape:current-layer="svg3039">
    <inkscape:grid
       type="xygrid"
       id="grid4133" />
  </sodipodi:namedview>
  <rect
     style="opacity:1;fill:#ececec;fill-opacity:1;fill-rule:nonzero;stroke:none;stroke-width:6;stroke-linecap:round;stroke-linejoin:bevel;stroke-miterlimit:4;stroke-dasharray:none;stroke-dashoffset:0;stroke-opacity:1"
     id="rect4135"
     width="4"
     height="12"
     x="3"
     y="5"
     rx="0.5"
     ry="0.42857143" />
  <path
     style="opacity:1;fill:#ececec;fill-opacity:1;fill-rule:nonzero;stroke:none;stroke-width:6;stroke-linecap:round;stroke-linejoin:bevel;stroke-miterlimit:4;stroke-dasharray:none;stroke-dashoffset:0;stroke-opacity:1"
     d="M 8.4472656,5 C 8.1990607,5 8,5.327355 8,5.734375 l 0,10.53125 C 8,16.672645 8.1990607,17 8.4472656,17 L 13,17 A 6,6 0 0 0 19,11 6,6 0 0 0 13,5 L 8.4472656,5 Z m 4.8261724,2.207031 c 1.588943,0 3.012378,0.89927 3.642578,2.285157 l 0.839843,-0.324219 -0.689453,2.392578 -2.283203,-1.271485 0.882813,-0.345703 C 15.237839,9.039775 14.318024,8.478516 13.273438,8.478516 c -1.084578,0 -2.066432,0.64879 -2.457032,1.617187 L 9.5878906,9.621094 C 10.170515,8.170393 11.646571,7.207031 13.273438,7.207031 Z m -3.7929692,3.253907 2.2851562,1.228515 -0.884766,0.345703 c 0.423006,0.899793 1.354887,1.486328 2.392579,1.486328 1.086645,0 2.054365,-0.628685 2.457031,-1.595703 l 1.228515,0.47461 c -0.604688,1.450355 -2.054889,2.392578 -3.685546,2.392578 -1.581015,0 -3.025824,-0.924202 -3.6425786,-2.306641 l -0.8398438,0.302734 0.6894532,-2.328124 z"
     id="rect4168"
     inkscape:connector-curvature="0" />
  <g
     id="g4220"
     transform="translate(-1.4098643,3.1102682)">
    <g
       style="fill:#ececec;fill-opacity:1"
       id="g3628"
       transform="matrix(0.34782609,0,0,0.34782609,2.6435901,2.6456559)" />
    <g
       transform="matrix(0.49988464,0,0,0.49988464,-37.411065,7.9950011)"
       clip-path="url(#clipPath-408241621)"
       id="g3650">
      <!-- color: #004794 -->
      <g
         id="g3652" />
    </g>
  </g>
</svg>

<!-- Created with Inkscape (http://www.inkscape.org/) -->
<svg xmlns="http://www.w3.org/2000/svg" viewBox="0 0 22 22">
 <rect width="4" height="12" x="3" y="5" rx="0.5" ry="0.429" style="fill:#ececec;opacity:1;fill-opacity:1;stroke:none;fill-rule:nonzero"/>
 <path d="m 8.447 5 c -0.248 0 -0.447 0.327 -0.447 0.734 l 0 10.531 c 0 0.407 0.199 0.734 0.447 0.734 l 4.553 0 a 6 6 0 0 0 6 -6 6 6 0 0 0 -6 -6 l -4.553 0 m 4.826 2.207 c 1.589 0 3.01 0.899 3.643 2.285 l 0.84 -0.324 -0.689 2.393 -2.283 -1.271 0.883 -0.346 c -0.428 -0.904 -1.348 -1.465 -2.393 -1.465 c -1.085 0 -2.066 0.649 -2.457 1.617 l -1.229 -0.475 c 0.583 -1.451 2.059 -2.414 3.686 -2.414 m -3.793 3.254 2.285 1.229 -0.885 0.346 c 0.423 0.9 1.355 1.486 2.393 1.486 1.087 0 2.054 -0.629 2.457 -1.596 l 1.229 0.475 c -0.605 1.45 -2.055 2.393 -3.686 2.393 -1.581 0 -3.03 -0.924 -3.643 -2.307 l -0.84 0.303 0.689 -2.328 z" style="fill:#ececec;opacity:1;fill-opacity:1;stroke:none;fill-rule:nonzero"/>
 <g transform="translate(-1.4098643,3.1102682)">
  <g transform="matrix(0.49988464,0,0,0.49988464,-37.411065,7.9950011)">
   <!-- color: #004794 -->
  </g>
 </g>
</svg>
